X:1
T:Loven Herren, 87.87.77
T:Loven Herren, 87.87.77
T:Joel Blomqvist (1840-1930)
T:Public Domain Courtesy of the Cyber Hymnal™
C:Joel Blomqvist (1840-1930)
Z:Public Domain
Z:Courtesy of the Cyber Hymnal™
%%score ( 1 2 ) ( 3 4 )
L:1/8
Q:1/4=125
M:3/4
K:D
V:1 treble 
V:2 treble 
V:3 bass 
V:4 bass 
V:1
 [Fd]4 [EA]2 | [DF]4 [CE]2 | D4 [DB]2 | A4 [DF]2 | [EG]4 [DF]2 | [CE]4 [Ec]2 | (B2 F2) [E^G]2 | %7
 [EA]6 | [Fd]4 [EA]2 | [DF]4 [CE]2 | D4 [DB]2 | A4 [DF]2 | [EG]4 [DF]2 | [CE]4 [Ec]2 | %14
 (B2 F2) [E^G]2 | [EA]6 | [CE]4 [^DF]2 | [EG]4 [CE]2 | [DA]4 [EG]2 | [DF]6 | [DB]4 [Ec]2 | %21
 [Dd]4 (BG) | [DF]4 [CE]2 | D6 |] %24
V:2
 x6 | x6 | D4 x2 | (D3 C) x2 | x6 | x6 | D4 x2 | x6 | x6 | x6 | D4 x2 | (D3 C) x2 | x6 | x6 | %14
 D4 x2 | x6 | x6 | x6 | x6 | x6 | x6 | x4 E2 | x6 | D6 |] %24
V:3
 [D,A,]4 [C,A,]2 | [D,A,]4 [A,,G,]2 | [B,,F,]4 [G,,G,]2 | (E,2 A,2) [D,A,]2 | [C,A,]4 [D,A,]2 | %5
 [E,A,]4 [E,A,]2 | (^G,2 B,2) [E,D]2 | [A,,C]6 | [D,A,]4 [C,A,]2 | [D,A,]4 [A,,G,]2 | %10
 [B,,F,]4 [G,,G,]2 | (E,2 A,2) [D,A,]2 | [C,A,]4 [D,A,]2 | [E,A,]4 [E,A,]2 | (^G,2 B,2) [E,D]2 | %15
 [A,,C]6 | A,4 [F,A,]2 | [E,B,]4 [G,A,]2 | [F,A,]4 [C,A,]2 | [D,A,]6 | G,4 [E,G,]2 | %21
 [F,A,]4 [G,B,]2 | A,4 [A,,G,]2 | [D,F,]6 |] %24
V:4
 x6 | x6 | x6 | A,,4 x2 | x6 | x6 | E,4 x2 | x6 | x6 | x6 | x6 | A,,4 x2 | x6 | x6 | E,4 x2 | x6 | %16
 A,4 x2 | x6 | x6 | x6 | G,4 x2 | x6 | A,4 x2 | x6 |] %24

